zondicons/svg/volume-off.svg

<svg width="20px" height="20px" viewBox="0 0 20 20" version="1.1" xmlns="http://www.w3.org/2000/svg" xmlns:xlink="http://www.w3.org/1999/xlink"><title>volume-off</title><desc>Created with Sketch.</desc><defs></defs><g id="Page-1" stroke="none" stroke-width="1" fill="none" fill-rule="evenodd"><g id="volume-off" fill="#000000"><path d="M15,8.58578644 L12.8786797,6.46446609 L11.4644661,7.87867966 L13.5857864,10 L11.4644661,12.1213203 L12.8786797,13.5355339 L15,11.4142136 L17.1213203,13.5355339 L18.5355339,12.1213203 L16.4142136,10 L18.5355339,7.87867966 L17.1213203,6.46446609 L15,8.58578644 Z M4,7 L0,7 L0,13 L4,13 L9,18 L9,2 L4,7 Z" id="Combined-Shape"></path></g></g></svg>

<svg xmlns="http://www.w3.org/2000/svg" viewBox="0 0 20 20"><path d="M15 8.59l-2.12-2.13-1.42 1.42L13.6 10l-2.13 2.12 1.42 1.42L15 11.4l2.12 2.13 1.42-1.42L16.4 10l2.13-2.12-1.42-1.42L15 8.6zM4 7H0v6h4l5 5V2L4 7z"/></svg>
